X: 30723
T: Orkney Spring Nights
R: waltz
M: 3/4
K: Dminor
F4 F2|D2 G2 F2|D6|EF G2 G2|A4 Hd2|
dc AG (3FGA|d3 c HA2|A3 A G2 HA2|
D3 D BG|FD FD C2|C2 D4||

